X: 1
T: String Quartet in C Major opus 50 no 2 mvt 1
C: Franz Joseph Haydn
%%abc-version 2.0
%%abcx-abcm2ps-target-version 5.9.1 (29 Sep 2008)
%%abc-creator hum2abc beta
%%abcx-conversion-date 2021/02/14 14:38:25
%%abc-copyright Copyright (c) 1994, 2000 Center for Computer Assisted Research in the Humanities
%%abc-edited-by Frances Bennion
%%abcx-initial-encoding-date 1997/04/15
%%gracespace 0 6 6
%%humdrum-veritas 3997503579
%%humdrum-veritas-data 3343921005
%%linebreak <none>
%%barnumbers 0
L: 1/4
M: 3/4
N: Derived from op50n2-01.krn
Q: "Vivace"
%%staves [1 2 3 4]
V: 1
V: 2
V: 3 clef=alto
V: 4 clef=bass
K: C
[V:1]c3- [I:setbarnb2] |
[V:2]z G G |
[V:3]z E E |
[V:4]C, z2 |
[V:1]c B c |
[V:2]G z2 |
[V:3]E z2 |
[V:4]z3 |
[V:1]^c d2- |
[V:2]z A A |
[V:3]z F F |
[V:4]C, z2 |
[V:1]d ^c d |
[V:2]A z2 |
[V:3]F z2 |
[V:4]z3 |
[V:1]f3 |
[V:2]z _B B |
[V:3]z G G |
[V:4]C,3- |
[V:1]e d e |
[V:2]_B3 |
[V:3]G3 |
[V:4]C,3 |
[V:1]a2 g//f//e//d// |
[V:2]A3 |
[V:3]F3 |
[V:4]F,,3 |
[V:1]c2 d |
[V:2]G2 F |
[V:3]E2 B, |
[V:4]G,,3 |
[V:1]c z2 |
[V:2]E z2 |
[V:3]C z2 |
[V:4]C, z2 |
[V:1]G3 |
[V:2]G3 |
[V:3]G,3 |
[V:4]G,,3 |
[V:1]E z2 |
[V:2]E z2 |
[V:3]E, z2 |
[V:4]E,, z2 |
[V:1]c2 B//A//G//^F// |
[V:2]^F3 |
[V:3]A,3 |
[V:4]D,,3 |
[V:1]G3/ A//B// c//d//e//^f// |
[V:2]G/z/ D/z/ B,/z/ |
[V:3]B, z2 |
[V:4]G,, z2 |
[V:1]g3/ a//b// c'//d'//e'//^f'// |
[V:2]G, z2 |
[V:3][DB,] z2 |
[V:4]G,/z/ D,/z/ B,,/z/ |
[V:1]g'/z/ d'/z/ b/z/ |
[V:2][BD] z2 |
[V:3][DB,] z2 |
[V:4]G,,3/ A,,//B,,// C,//D,//E,//^F,// |
[V:1]g/z/ d/z/ B/z/ |
[V:2][BD] z2 |
[V:3]G, z2 |
[V:4]G,3/ A,//B,// C//D//E//^F// |
[V:1][G,/G/]z/[G,/G/] z/[G,/G/]z/ |
[V:2][B,/D/]z/[D/B,/] z/[D/B,/]z/ |
[V:3]G,/z/ G,/z/ G,/z/ |
[V:4]G/z/ D/z/ B,/z/ |
[V:1][G,G] z2 |
[V:2][DB,] z2 |
[V:3]G, z2 |
[V:4]G, z2 |
[V:1]F/z/ F/z/ F/z/ |
[V:2]G/z/ G/z/ G/z/ |
[V:3]D/z/ D/z/ D/z/ |
[V:4]B,/z/ B,/z/ B,/z/ |
[V:1]F z2 |
[V:2]G z2 |
[V:3]D z2 |
[V:4]B, z2 |
[V:1]c3- |
[V:2]z G G |
[V:3]z E E |
[V:4]z3 |
[V:1]c B c |
[V:2]F z2 |
[V:3]D z2 |
[V:4]z3 |
[V:1]^c d2- |
[V:2]z A A |
[V:3]z F F |
[V:4]z3 |
[V:1]d ^c d |
[V:2]G z2 |
[V:3]E z2 |
[V:4]z3 |
[V:1]f3 |
[V:2]z _B B |
[V:3]z G G |
[V:4]z ^C C |
[V:1]e d e |
[V:2]_B3 |
[V:3]G3 |
[V:4]^C3 |
[V:1]f3/ g//a// g//f//e//d// |
[V:2]A3 |
[V:3]F3 |
[V:4]D2 F, |
[V:1]c2 d |
[V:2]G2 F |
[V:3]E2 B, |
[V:4]G,3 |
[V:1]c z2 |
[V:2]E z2 |
[V:3]C z2 |
[V:4]C, z2 |
[V:1]G3 |
[V:2]G3 |
[V:3]G,3 |
[V:4]G,,3 |
[V:1]E z2 |
[V:2]E z2 |
[V:3]E, z2 |
[V:4]E,, z2 |
[V:1]c2 B//A//G//^F// |
[V:2]^F3 |
[V:3]A,3 |
[V:4]D,,3 |
[V:1]G3/ A//B// c//d//e//^f// |
[V:2]G/z/ D/z/ B,/z/ |
[V:3]B,/z/ B/z3/ |
[V:4]G,, z2 |
[V:1]g2 ^f//e//d//^c// |
[V:2]^C2 ^c |
[V:3]G2 A |
[V:4]E,,2 E, |
[V:1]d z2 |
[V:2]d d d |
[V:3]^F z B |
[V:4]D,3/ E,//^F,// G,//A,//B,//^C// |
[V:1]d3/ e//^f// g//a//b//^c'// |
[V:2]d e d |
[V:3]B c B |
[V:4]D z2 |
[V:1]d' z2 |
[V:2]z c c |
[V:3]z A A |
[V:4]D,3/ E,//^F,// G,//A,//B,//^C// |
[V:1]d3/ e//^f// g//a//b//^c'// |
[V:2]c d c |
[V:3]A B A |
[V:4]D z2 |
[V:1]d' z2 |
[V:2]z B B |
[V:3]z G G |
[V:4]D,3/ E,//^F,// G,//A,//B,//^C// |
[V:1]d3/ e//^f// g//a//b//^c'// |
[V:2]B c B |
[V:3]G A G |
[V:4]D z2 |
[V:1]d' z2 |
[V:2]A A A |
[V:3]^F F F |
[V:4]D,3/ E,//^F,// G,//A,//B,//^C// |
[V:1]z3 |
[V:2]A z2 |
[V:3]^F z2 |
[V:4]D/^C/ D/B,/ =C/A,/ |
[V:1]z d' d' |
[V:2]B/d/ B/d/ B/d/ |
[V:3]G/B/ G/B/ G/B/ |
[V:4]G, z2 |
[V:1]^f2 a/g//a// |
[V:2]c/d/ c/d/ c/d/ |
[V:3]A/c/ A/c/ A/c/ |
[V:4]D, z2 |
[V:1]g d b/a//b// |
[V:2]B/d/ B/d/ B/d/ |
[V:3]G/B/ G/B/ G/B/ |
[V:4]G, z2 |
[V:1]a d c'/b//c'// |
[V:2]c/d/ c/d/ A/d/ |
[V:3]D/^F/ D/F/ D/F/ |
[V:4]D, z2 |
[V:1]b d' d' |
[V:2]B/d/ B/d/ B/d/ |
[V:3]G/B/ G/B/ G/B/ |
[V:4]G, z2 |
[V:1]d' ^f a/g//a// |
[V:2]c/d/ c/d/ c/d/ |
[V:3]^F/A/ A/c/ A/c/ |
[V:4]D, z2 |
[V:1]g d b/a//b// |
[V:2]B/d/ B/d/ B/d/ |
[V:3]G/B/ G/B/ G/B/ |
[V:4]G, z2 |
[V:1]a d c'/b//c'// |
[V:2]c/d/ c/d/ A/d/ |
[V:3]D/^F/ D/F/ D/F/ |
[V:4]D, z2 |
[V:1]b g e' |
[V:2]B/d/ B B |
[V:3]G z G |
[V:4]G, z G, |
[V:1]d'2 ^c' |
[V:2]A3- |
[V:3]^F2 E |
[V:4]A,2 G, |
[V:1]d'/>e'/ ^f'/>g'/ a'3//b'// |
[V:2]A z2 |
[V:3]D z2 |
[V:4]^F, z2 |
[V:1]c'' z2 |
[V:2]z3 |
[V:3]z3 |
[V:4]z3 |
[V:1]c3 |
[V:2]^F A D- |
[V:3]A D ^F |
[V:4]D,/>E,/ ^F,/>G,/ A,3//F,// |
[V:1]B A e |
[V:2]D E A |
[V:3]G E C |
[V:4]G, C, C, |
[V:1]G2 A |
[V:2]G2 ^F |
[V:3]B,2 C |
[V:4]D,3 |
[V:1]g d d |
[V:2]z G G |
[V:3]z3 |
[V:4]z B, B, |
[V:1]g ^d d |
[V:2]z G G |
[V:3]z3 |
[V:4]z B, B, |
[V:1]^d3 |
[V:2]G3- |
[V:3]z3 |
[V:4]C3- |
[V:1]e d/c/ B/A/ |
[V:2]G z2 |
[V:3]z3 |
[V:4]C z2 |
[V:1]G2 A |
[V:2]B,2 C |
[V:3]D2 ^F |
[V:4]D,3 |
[V:1]g d d |
[V:2]z G G |
[V:3]z3 |
[V:4]z B, B, |
[V:1]g _e e |
[V:2]z G G |
[V:3]z3 |
[V:4]z B, B, |
[V:1]_e3- |
[V:2]G3 |
[V:3]z3 |
[V:4]C3- |
[V:1]e _e e |
[V:2]_A3- |
[V:3]_E3 |
[V:4]C3 |
[V:1]_e3 |
[V:2]A _A A |
[V:3]F F F |
[V:4]_B,3 |
[V:1]_d c d |
[V:2]_B3 |
[V:3]G2 _B- |
[V:4]_E,3 |
[V:1]_d c c |
[V:2]_E3 |
[V:3]B _A A |
[V:4]_A,3 |
[V:1]z c c |
[V:2]_B,3 |
[V:3]G,3 |
[V:4]E,3 |
[V:1]c _d c |
[V:2]_A,3 |
[V:3]_A,3 |
[V:4]F,3 |
[V:1]z c c |
[V:2]E3 |
[V:3]_B,3 |
[V:4]G,3 |
[V:1]c _d c |
[V:2]F3 |
[V:3]C3 |
[V:4]_A,3 |
[V:1]z c c |
[V:2]_B,3 |
[V:3]G,3 |
[V:4]E,3 |
[V:1]c _d c |
[V:2]_A,3 |
[V:3]_A,3 |
[V:4]F,3 |
[V:1]z c c |
[V:2]C3 |
[V:3]G,3 |
[V:4]_E,3 |
[V:1]c d c |
[V:2]^F3 |
[V:3]A,3 |
[V:4]D,3- |
[V:1]_B A B |
[V:2]G ^F G |
[V:3]G, A, G, |
[V:4]D,3- |
[V:1]A d d |
[V:2]^F A A |
[V:3]D ^F F |
[V:4]D, z2 |
[V:1]d2 ^c |
[V:2]_B c B |
[V:3]G A G |
[V:4]z3 |
[V:1]d2 ^f |
[V:2]A ^F c |
[V:3]^F z D |
[V:4]z D,, D,, |
[V:1]g2 ^c |
[V:2]_B z G |
[V:3]^C2 G, |
[V:4]_E,, D,, E,, |
[V:1]d z2 |
[V:2]^F d d |
[V:3]A, z2 |
[V:4]D,, z2 |
[V:1]z3 |
[V:2]d/^c/ d/B/ =c/A/ |
[V:3]z3 |
[V:4]z3 |
[V:1]z g g |
[V:2]G3- |
[V:3]z D D |
[V:4]z B, B, |
[V:1]g3- |
[V:2]G ^F G |
[V:3]D C D |
[V:4]B, A, B, |
[V:1]g3- |
[V:2]^G A2 |
[V:3]E3 |
[V:4]C3 |
[V:1]g3- |
[V:2]B ^A B |
[V:3]F E F |
[V:4]D ^C D |
[V:1]g3- |
[V:2]d2 c |
[V:3]G3 |
[V:4]E3 |
[V:1]g3- |
[V:2]f e f |
[V:3]d ^c d |
[V:4]B,3 |
[V:1]g e c |
[V:2]e c A |
[V:3]c z E |
[V:4]C3 |
[V:1]B c A |
[V:2]G A ^F |
[V:3]D z C |
[V:4]D2 D, |
[V:1]G/A//B// c//d//e//^f// g//a//b//c'// |
[V:2]G3- |
[V:3]D3- |
[V:4]B,,3- |
[V:1]d'/b/ g/d/ B/G/ |
[V:2]G G G |
[V:3]D D D |
[V:4]B,, B,, B,, |
[V:1]E e' z |
[V:2]G z2 |
[V:3]E z2 |
[V:4]C, z2 |
[V:1]z/^d'/ e'/^c'/ =d'/b/ |
[V:2]C z2 |
[V:3]z3 |
[V:4]z3 |
[V:1]c'/^g/ a/b/ c'/a/ |
[V:2]z3 |
[V:3]z3 |
[V:4]z3 |
[V:1]a3- |
[V:2]z c c |
[V:3]^F3- |
[V:4]D, D, D, |
[V:1]a3 |
[V:2]c B c |
[V:3]F3 |
[V:4]D,, D,, D,, |
[V:1]g z2 |
[V:2]B z2 |
[V:3]G z2 |
[V:4]G,,/B,,/ D,/G,/ B,/D/ |
[V:1]d3 |
[V:2]C3 |
[V:3]^F,2 A, |
[V:4]D,/^F,/ A,/C/ D/^F/ |
[V:1]B z2 |
[V:2]B, z2 |
[V:3]G,/B,/ D/G/ B/d/ |
[V:4]G z2 |
[V:1]c'3 |
[V:2]A3 |
[V:3]D/^F/ A/c/ d/^f/ |
[V:4]z3 |
[V:1]b z2 |
[V:2]G/B/ d/g/ b/d'/ |
[V:3]g z2 |
[V:4]z3 |
[V:1]^f'3 |
[V:2]c'/a/ ^f/d/ c/A/ |
[V:3]A3 |
[V:4]D,3 |
[V:1]g' z2 |
[V:2]G z2 |
[V:3]B z2 |
[V:4]G,, z2 |
[V:1]z3 |
[V:2]z B G |
[V:3]G3- |
[V:4]z3 |
[V:1]z3 |
[V:2]A d2- |
[V:3]G ^F G |
[V:4]z3 |
[V:1]z3 |
[V:2]d c A |
[V:3]^G A2- |
[V:4]z3 |
[V:1]z3 |
[V:2]B e c |
[V:3]A ^G A |
[V:4]z3 |
[V:1]z3 |
[V:2]A d ^F |
[V:3]c3 |
[V:4]z3 |
[V:1]z3 |
[V:2]G B d- |
[V:3]B G F |
[V:4]z3 |
[V:1]z e c |
[V:2]d c z |
[V:3]E G G |
[V:4]C3- |
[V:1]d g2- |
[V:2]z G A |
[V:3]G z2 |
[V:4]C B, C |
[V:1]g f d |
[V:2]_B A A |
[V:3]z3 |
[V:4]^C D2- |
[V:1]e a g |
[V:2]A3- |
[V:3]z E ^C |
[V:4]D ^C E |
[V:1]f3- |
[V:2]A z2 |
[V:3]D3- |
[V:4]D _B, ^G, |
[V:1]f e f |
[V:2]z3 |
[V:3]D ^C D |
[V:4]A,3- |
[V:1]^f g2 |
[V:2]z3 |
[V:3]^D E2 |
[V:4]A, E, ^C, |
[V:1]f F F |
[V:2]F3- |
[V:3]F A, A, |
[V:4]D,2 D, |
[V:1]F z2 |
[V:2]F E F |
[V:3]_B, z2 |
[V:4]D, z2 |
[V:1]z E E |
[V:2]^F G2- |
[V:3]z _B, B, |
[V:4]C,2 z |
[V:1]E z2 |
[V:2]G ^F G |
[V:3]_B, z2 |
[V:4]z3 |
[V:1]z _E E |
[V:2]_B3 |
[V:3]z C C |
[V:4]F,,3 |
[V:1]_E z2 |
[V:2]A G A |
[V:3]C3 |
[V:4]^F,,3 |
[V:1]g3- |
[V:2]_B z2 |
[V:3]_B, B, z |
[V:4]G,,/_B,,/ D,/G,/ _B,/D/ |
[V:1]g ^f g |
[V:2]z3 |
[V:3]z3 |
[V:4]G z2 |
[V:1]^g a2- |
[V:2]z3 |
[V:3]c/A/ ^F/D/ A,/^F,/ |
[V:4]z3 |
[V:1]a ^g a |
[V:2]z3 |
[V:3]D, z2 |
[V:4]z3 |
[V:1]c'3 |
[V:2]G,/D/ F/G/ B/d/ |
[V:3]z3 |
[V:4]z3 |
[V:1]b a b |
[V:2]f z2 |
[V:3]z3 |
[V:4]z3 |
[V:1]c'3- |
[V:2]z g g |
[V:3]z e e |
[V:4]z3 |
[V:1]c' d' c' |
[V:2]f z2 |
[V:3]d z2 |
[V:4]z3 |
[V:1]b _b2- |
[V:2]z f f |
[V:3]z d d |
[V:4]z3 |
[V:1]b c' _b |
[V:2]e z2 |
[V:3]c z2 |
[V:4]z3 |
[V:1]^g3 |
[V:2]z c c |
[V:3]F3- |
[V:4]z3 |
[V:1]a _b a |
[V:2]c3- |
[V:3]F G F |
[V:4]z3 |
[V:1]g c' a |
[V:2]c3 |
[V:3]E _E2- |
[V:4]z3 |
[V:1]f3- |
[V:2]A3 |
[V:3]E F _E |
[V:4]z3 |
[V:1]f g f |
[V:2]_B3- |
[V:3]D3 |
[V:4]G,3- |
[V:1]e3- |
[V:2]B c _B |
[V:3]C3- |
[V:4]G, A, G, |
[V:1]e d c |
[V:2]A3 |
[V:3]C D D |
[V:4]^F, =F,2- |
[V:1]B3 |
[V:2]G3 |
[V:3]D3 |
[V:4]F, G, F, |
[V:1]_B B B |
[V:2]g3- |
[V:3]C C C |
[V:4]E, E, E, |
[V:1]A z2 |
[V:2]g f g |
[V:3]C z2 |
[V:4]F, z2 |
[V:1]z c c |
[V:2]^g a2- |
[V:3]z _E E |
[V:4]z ^F, F, |
[V:1]B z2 |
[V:2]a g a |
[V:3]D z2 |
[V:4]G, z2 |
[V:1]z d d |
[V:2]^a b2- |
[V:3]z F F |
[V:4]z ^G, G, |
[V:1]c2 e |
[V:2]b a c'- |
[V:3]E z A, |
[V:4]A, z2 |
[V:1]^d3 |
[V:2]c' b a |
[V:3]A B c/A/ |
[V:4]F,3 |
[V:1]e z2 |
[V:2]^g e e |
[V:3]E z c |
[V:4]E,3/ ^F,//^G,// A,//B,//C//D// |
[V:1]e3/ ^f//^g// a//b//c'//d'// |
[V:2]e f e |
[V:3]c d c |
[V:4]E z2 |
[V:1]e' z2 |
[V:2]z d d |
[V:3]z B B |
[V:4]E,3/ ^F,//^G,// A,//B,//C//D// |
[V:1]e3/ ^f//^g// a//b//c'//d'// |
[V:2]d e d |
[V:3]B c B |
[V:4]E z2 |
[V:1]e' z2 |
[V:2]z c c |
[V:3]z A A |
[V:4]E,3/ ^F,//^G,// A,//B,//C//D// |
[V:1]e3/ ^f//^g// a//b//c'//d'// |
[V:2]c d c |
[V:3]A B A |
[V:4]E z2 |
[V:1]e' z2 |
[V:2]B B B |
[V:3]^G G G |
[V:4]E,3/ ^F,//^G,// A,//B,//C//D// |
[V:1]z3 |
[V:2]B z2 |
[V:3]^G z2 |
[V:4]E/F/ E/D/ C/B,/ |
[V:1]z3 |
[V:2]z e e |
[V:3]C/E/ C/E/ C/E/ |
[V:4]A,/C/ A,/C/ A,/C/ |
[V:1]z3 |
[V:2]^G2 B/A//B// |
[V:3]D/E/ D/E/ B,/E/ |
[V:4]B,/D/ B,/D/ E,/^G,/ |
[V:1]z3 |
[V:2]A E c/B//c// |
[V:3]C/E/ C/E/ C/E/ |
[V:4]A,/C/ A,/C/ A,/C/ |
[V:1]z3 |
[V:2]B E d/c//d// |
[V:3]D/E/ D/E/ B,/E/ |
[V:4]^G,/E,/ G,/E,/ G,/E,/ |
[V:1]z c' c' |
[V:2]c/A/ C/E/ C/E/ |
[V:3]C/E/ A,/C/ A,/C/ |
[V:4]A, z2 |
[V:1]e2 g/f//g// |
[V:2]_B,/C/ B,/C/ B,/C/ |
[V:3]G,/_B,/ G,/B,/ G,/B,/ |
[V:4]C,3 |
[V:1]f c a/g//a// |
[V:2]A,/C/ A,/C/ A,/C/ |
[V:3]F,/A,/ F,/A,/ F,/A,/ |
[V:4]F,, z2 |
[V:1]g c _b/a//b// |
[V:2]_B,/C/ B,/C/ G,/C/ |
[V:3]E,/C,/ E,/C,/ E,/C,/ |
[V:4]C, z2 |
[V:1]a z2 |
[V:2]A, A A |
[V:3]F, F F |
[V:4]F, z2 |
[V:1]z a a |
[V:2]E2 G/F//G// |
[V:3]^C2 E/D//E// |
[V:4]z3 |
[V:1]a/^c'/ d'/c'/ d'/e'/ |
[V:2]F D z |
[V:3]D A A |
[V:4]z F F |
[V:1]f' d' b |
[V:2]z3 |
[V:3]D2 F/E//F// |
[V:4]B,2 D/C//D// |
[V:1]c' c'/b/ c'/d'/ |
[V:2]z3 |
[V:3]E E E |
[V:4]C C C |
[V:1]e'/c'/ b/a/ g/^f/ |
[V:2]z3 |
[V:3]A,2 C/B,//C// |
[V:4]^F,2 A,/G,//A,// |
[V:1]g g g |
[V:2]G2 G/A/ |
[V:3]B,/C/ D/C/ D/E/ |
[V:4]G,/A,/ B,/A,/ B,/C/ |
[V:1]g g g |
[V:2]B B B |
[V:3]F F F |
[V:4]D D D |
[V:1]g z2 |
[V:2]B z2 |
[V:3]F z2 |
[V:4]D z2 |
[V:1]c3- |
[V:2]z G G |
[V:3]z E E |
[V:4]C, z2 |
[V:1]c B c |
[V:2]G z2 |
[V:3]E z2 |
[V:4]z3 |
[V:1]^c d2- |
[V:2]z A A |
[V:3]z F F |
[V:4]C, z2 |
[V:1]d ^c d |
[V:2]A z2 |
[V:3]F z2 |
[V:4]z3 |
[V:1]f3 |
[V:2]z _B B |
[V:3]z G G |
[V:4]C,3- |
[V:1]e d e |
[V:2]_B3 |
[V:3]G3 |
[V:4]C,3 |
[V:1]a2 g//f//e//d// |
[V:2]A3 |
[V:3]F3 |
[V:4]F,,3 |
[V:1]c2 d |
[V:2]G2 F |
[V:3]E2 B, |
[V:4]G,,3 |
[V:1]c z2 |
[V:2]E z2 |
[V:3]C z2 |
[V:4]C, z2 |
[V:1]G3 |
[V:2]G3 |
[V:3]G,3 |
[V:4]G,,3 |
[V:1]E z2 |
[V:2]E z2 |
[V:3]E, z2 |
[V:4]E,, z2 |
[V:1]c2 B//A//G//^F// |
[V:2]^F3 |
[V:3]A,3 |
[V:4]D,,3 |
[V:1]G3/ A//B// c//d//e//^f// |
[V:2]G/z/ D/z/ B,/z/ |
[V:3]B, z2 |
[V:4]G,, z2 |
[V:1]g3/ a//b// c'//d'//e'//^f'// |
[V:2]G, z2 |
[V:3][B,D] z2 |
[V:4]G,/z/ D,/z/ B,,/z/ |
[V:1]g' d'/z/ b/z/ |
[V:2][BD] z2 |
[V:3][DB,] z2 |
[V:4]G,,3/ A,,//B,,// C,//D,//E,//^F,// |
[V:1]g/z/ d/z/ B/z/ |
[V:2][BD] z2 |
[V:3]G, z2 |
[V:4]G,3/ A,//B,// C//D//E//^F// |
[V:1][G/G,/]z/[G/G,/] z/[G/G,/]z/ |
[V:2][D/B,/]z/[D/B,/] z/[D/B,/]z/ |
[V:3]G,/z/ G,/z/ G,/z/ |
[V:4]G/z/ D/z/ B,/z/ |
[V:1][G,G] z2 |
[V:2][DB,] z2 |
[V:3]G, z2 |
[V:4]G, z2 |
[V:1]F/z/ F/z/ F/z/ |
[V:2]G/z/ G/z/ G/z/ |
[V:3]D/z/ D/z/ D/z/ |
[V:4]B,/z/ B,/z/ B,/z/ |
[V:1]F z2 |
[V:2]G z2 |
[V:3]D z2 |
[V:4]B, z2 |
[V:1]z3 |
[V:2]z3 |
[V:3]z3 |
[V:4]C,3- |
[V:1]z3 |
[V:2]z3 |
[V:3]G,3- |
[V:4]C, B,, C, |
[V:1]z3 |
[V:2]z3 |
[V:3]G, ^F, G, |
[V:4]^C, D,2- |
[V:1]z3 |
[V:2]z3 |
[V:3]^G, A,2- |
[V:4]D, ^C, D, |
[V:1]z3 |
[V:2]z3 |
[V:3]A, ^G, A, |
[V:4]F,3- |
[V:1]z3 |
[V:2]z3 |
[V:3]C3- |
[V:4]F, E, ^F, |
[V:1]z3 |
[V:2]z3 |
[V:3]C B, D- |
[V:4]G,2 F, |
[V:1]g3- |
[V:2]z3 |
[V:3]D C F |
[V:4]E,2 D, |
[V:1]g a g |
[V:2]c3- |
[V:3]E z2 |
[V:4]C, z2 |
[V:1]^f =f2- |
[V:2]c d c |
[V:3]z3 |
[V:4]z3 |
[V:1]f g f |
[V:2]B _B2- |
[V:3]z3 |
[V:4]z3 |
[V:1]e3 |
[V:2]B c _B |
[V:3]C3- |
[V:4]z3 |
[V:1]f z2 |
[V:2]A _B A |
[V:3]C D C |
[V:4]F,3- |
[V:1]z3 |
[V:2]G3 |
[V:3]B, _B,2- |
[V:4]F, G, F, |
[V:1]g3- |
[V:2]C2 z |
[V:3]B, C G, |
[V:4]E, _E,2 |
[V:1]g ^f g |
[V:2]c3- |
[V:3]A, A G |
[V:4]D,2 E, |
[V:1]^g a2- |
[V:2]c B c |
[V:3]^F D D |
[V:4]^F,3 |
[V:1]a g a |
[V:2]B B c |
[V:3]D2 z |
[V:4]G,3- |
[V:1]^a b2 |
[V:2]^c d2 |
[V:3]z [DF] [FD] |
[V:4]G, [G,,G,] [G,G,,] |
[V:1]d' c'2 |
[V:2]f e2 |
[V:3]z [EC] [EC] |
[V:4]z [G,G,,] [G,G,,] |
[V:1]a ^f2 |
[V:2]c A2 |
[V:3]z [_EC] [EC] |
[V:4]z [G,,G,] [G,,G,] |
[V:1]a g2 |
[V:2]c B2 |
[V:3]z [DB,] [DB,] |
[V:4]z [G,,G,] [G,G,,] |
[V:1]d d e |
[V:2]B B ^c |
[V:3]z3 |
[V:4]z3 |
[V:1]g2 f |
[V:2]e2 d |
[V:3]z3 |
[V:4]z3 |
[V:1]z3 |
[V:2]z3 |
[V:3]D D E |
[V:4]B, B, ^C |
[V:1]z3 |
[V:2]z3 |
[V:3]G2 F |
[V:4]E2 D |
[V:1]d d e |
[V:2]B B ^c |
[V:3]z3 |
[V:4]z3 |
[V:1]g3 |
[V:2]e3 |
[V:3]z3 |
[V:4]z3 |
[V:1]f3 |
[V:2]d3 |
[V:3]B,3 |
[V:4]G,3 |
[V:1]z g g |
[V:2]E/G/ E/G/ E/G/ |
[V:3]C/E/ C/E/ C/E/ |
[V:4]C z2 |
[V:1]B2 d/c//d// |
[V:2]F/G/ F/G/ F/G/ |
[V:3]D/F/ D/F/ D/F/ |
[V:4]G, z2 |
[V:1]c G e/d//e// |
[V:2]E/G/ E/G/ E/G/ |
[V:3]C/E/ C/E/ C/E/ |
[V:4]C, z2 |
[V:1]d G f/e//f// |
[V:2]F/G/ F/G/ D/G/ |
[V:3]G,/B,/ G,/B,/ G,/B,/ |
[V:4]G,, z2 |
[V:1]e/f/ ^f/g/ a/g/ |
[V:2]E/G/ E/G/ E/G/ |
[V:3]C/E/ C/E/ C/E/ |
[V:4]C, z2 |
[V:1]g B d/c//d// |
[V:2]F/G/ F/G/ F/G/ |
[V:3]D/F/ D/F/ D/F/ |
[V:4]G,, z2 |
[V:1]c G e/d//e// |
[V:2]E/G/ E/G/ E/G/ |
[V:3]C/E/ C/E/ C/E/ |
[V:4]C, z2 |
[V:1]d G f/e//f// |
[V:2]F/G/ F/G/ D/G/ |
[V:3]G,/B,/ G,/B,/ G,/B,/ |
[V:4]G, z2 |
[V:1]e c a |
[V:2]E/G/ E E |
[V:3]C z C |
[V:4]C, z C, |
[V:1]g2 ^f |
[V:2]D3- |
[V:3]B,2 A, |
[V:4]D,2 C, |
[V:1]g/>a/ b/>c'/ d'3//e'// |
[V:2]D z2 |
[V:3]G, z2 |
[V:4]B,, z2 |
[V:1]f' z2 |
[V:2]z3 |
[V:3]z3 |
[V:4]z3 |
[V:1]f3 |
[V:2]B d G- |
[V:3]D G, B, |
[V:4]G,/>A,/ B,/>C/ D3//B,// |
[V:1]e d a |
[V:2]G A d |
[V:3]C A F |
[V:4]C F, F, |
[V:1]c2 d |
[V:2]c2 B |
[V:3]E2 F |
[V:4]G,3 |
[V:1]c' g g |
[V:2]z c c |
[V:3]z E E |
[V:4]z3 |
[V:1]c' ^g g |
[V:2]z c c |
[V:3]z E E |
[V:4]z3 |
[V:1]^g3 |
[V:2]c3- |
[V:3]F3- |
[V:4]z3 |
[V:1]a g/f/ e/d/ |
[V:2]c z2 |
[V:3]F z2 |
[V:4]z3 |
[V:1]c2 d |
[V:2]E2 F |
[V:3]G,2 B, |
[V:4]G,3 |
[V:1]c' g g |
[V:2]z c c |
[V:3]z3 |
[V:4]z E E |
[V:1]c' _a a |
[V:2]z c c |
[V:3]z3 |
[V:4]z E E |
[V:1]_a3- |
[V:2]c3 |
[V:3]z3 |
[V:4]F3- |
[V:1]a _a a |
[V:2]_d3- |
[V:3]_A3 |
[V:4]F3 |
[V:1]_a3 |
[V:2]d _d d |
[V:3]_B B B |
[V:4]_E3 |
[V:1]_g f g |
[V:2]_e3 |
[V:3]c2 _E- |
[V:4]_A,3 |
[V:1]_g f f |
[V:2]_A3 |
[V:3]E _D D |
[V:4]_D3 |
[V:1]z f f |
[V:2]_E3 |
[V:3]C3 |
[V:4]A,3 |
[V:1]f _g f |
[V:2]_D3 |
[V:3]_D3 |
[V:4]_B,3 |
[V:1]z f f |
[V:2]A3 |
[V:3]_E3 |
[V:4]C3 |
[V:1]f _g f |
[V:2]_B3 |
[V:3]F3 |
[V:4]_D3 |
[V:1]z f f |
[V:2]_E3 |
[V:3]C3 |
[V:4]A,3 |
[V:1]f _g f |
[V:2]_D3 |
[V:3]_D3 |
[V:4]_B,3 |
[V:1]z f f |
[V:2]F3 |
[V:3]C3 |
[V:4]_A,3 |
[V:1]f g f |
[V:2]B3 |
[V:3]D3 |
[V:4]G,3- |
[V:1]_e d e |
[V:2]c B c |
[V:3]C D C |
[V:4]G,3- |
[V:1]d g g |
[V:2]B d d |
[V:3]G B B |
[V:4]G, z2 |
[V:1]g2 ^f |
[V:2]_e f e |
[V:3]c d c |
[V:4]z3 |
[V:1]g2 b |
[V:2]d B f |
[V:3]B z G |
[V:4]z G,, G,, |
[V:1]c'2 ^f |
[V:2]_e z c |
[V:3]^F2 C |
[V:4]_A,, G,, A,, |
[V:1]g z2 |
[V:2]B g g |
[V:3]D z2 |
[V:4]G,, z2 |
[V:1]z3 |
[V:2]g/^f/ g/e/ =f/d/ |
[V:3]z3 |
[V:4]z3 |
[V:1]z c' c' |
[V:2]c3- |
[V:3]z G G |
[V:4]z E E |
[V:1]c'3- |
[V:2]c B c |
[V:3]G F G |
[V:4]E D E |
[V:1]c'3- |
[V:2]^c d2 |
[V:3]A3 |
[V:4]F3 |
[V:1]c'3- |
[V:2]e ^d e |
[V:3]_B A B |
[V:4]G ^F G |
[V:1]c'3- |
[V:2]g2 f |
[V:3]c3 |
[V:4]A3 |
[V:1]c'3- |
[V:2]_b a b |
[V:3]G ^F G |
[V:4]E3 |
[V:1]c' a f |
[V:2]a f d |
[V:3]A z A |
[V:4]F3 |
[V:1]e f d |
[V:2]c d B |
[V:3]G z F |
[V:4]G2 G, |
[V:1]c z2 |
[V:2]C/D//E// F//G//A//B// c//d//e//f// |
[V:3]E z2 |
[V:4]C z2 |
[V:1]z3 |
[V:2]g z2 |
[V:3]E,/F,//G,// A,//B,//C//D// E//F//G//F// |
[V:4]C,/D,//E,// F,//G,//A,//B,// C//D//E//D// |
[V:1]c/d//e// f//g//a//b// c'//d'//e'//f'// |
[V:2]z3 |
[V:3]E z2 |
[V:4]C z2 |
[V:1]g'/e'/ c'/g/ e/c/ |
[V:2]c3 |
[V:3]G3 |
[V:4]E,3 |
[V:1]A a z |
[V:2]A z2 |
[V:3]C z2 |
[V:4]F, z2 |
[V:1]z/^g/ a/^f/ =g/e/ |
[V:2]F z2 |
[V:3]z3 |
[V:4]z3 |
[V:1]f/^c/ d/e/ f/d/ |
[V:2]z3 |
[V:3]z3 |
[V:4]z3 |
[V:1]d3- |
[V:2]z F F |
[V:3]B,3 |
[V:4]G, G, G, |
[V:1]d3 |
[V:2]F E F |
[V:3]B3 |
[V:4]G,, G,, G,, |
[V:1]c z2 |
[V:2]E z2 |
[V:3]c z2 |
[V:4]C,,/E,,/ G,,/C,/ E,/G,/ |
[V:1]G3 |
[V:2]B,2 D |
[V:3]F,3 |
[V:4]G,,/B,,/ D,/F,/ G,/B,/ |
[V:1]E z2 |
[V:2]C z2 |
[V:3]C,/E,/ G,/C/ E/G/ |
[V:4]C z2 |
[V:1]f3 |
[V:2]D3 |
[V:3]G,/B,/ D/F/ G/B/ |
[V:4]z3 |
[V:1]e z2 |
[V:2]C/E/ G/c/ e/g/ |
[V:3]c z2 |
[V:4]z3 |
[V:1]b3 |
[V:2]f/d/ B/G/ F/D/ |
[V:3]D3 |
[V:4]G,,3 |
[V:1]c' z2 |]
[V:2]C z2 |]
[V:3]E z2 |]
[V:4]C,, z2 |]

